icon-themes/breeze_svg/cmd/sc_fontworkshapetype.fontwork-open-circle-curve.svg

<svg viewBox="0 0 16 16" xmlns="http://www.w3.org/2000/svg">/&gt;<path d="m8 4c-2.6256 0-4.90204 1.5903013-6 3.9257812l2.0234375 1.0742188c.73198-1.55693 2.2262125-2.6289062 3.9765625-2.6289062 1.75037 0 3.244573 1.0719762 3.976562 2.6289062l2.023438-1.0742188c-1.09794-2.3354799-3.3744-3.9257812-6-3.9257812zm-3 6v2h6v-2z" fill="#4d4d4d"/></svg>

<svg xmlns="http://www.w3.org/2000/svg" viewBox="0 0 16 16">
     />
 <path 
     style="fill:#4d4d4d" 
     d="M 8 4 C 5.3744 4 3.09796 5.5903013 2 7.9257812 L 4.0234375 9 C 4.7554175 7.44307 6.24965 6.3710938 8 6.3710938 C 9.75037 6.3710938 11.244573 7.44307 11.976562 9 L 14 7.9257812 C 12.90206 5.5903013 10.6256 4 8 4 z M 5 10 L 5 12 L 11 12 L 11 10 L 5 10 z "
     />
 </svg>
